_includes/icons/color-pill.svg

<svg fill="#666" height="50" viewBox="0 0 48 48" width="50" xmlns="http://www.w3.org/2000/svg"><path d="m7.9375 25.921875c-4.015625 4.015625-4.105469 10.4375-.199219 14.34375 3.902344 3.902344 10.324219 3.8125 14.339844-.203125l8.992188-8.992187-14.140625-14.140625z" fill="#e91e63"/><path d="m40.265625 7.734375c-3.910156-3.90625-10.328125-3.8125-14.34375.203125l-8.992187 8.992188 14.140625 14.140625 8.988281-8.992188c4.019531-4.015625 4.109375-10.4375.207031-14.34375z" fill="#00bcd4"/><path d="m31.070313 31.070313-14.140625-14.140625 1.414062-1.414063 14.140625 14.140625z" fill="#00838f"/><path d="m18.855469 18.855469-9.191406 9.191406s-5.140625 5.144531 0 10.285156c.449218.445313.945312.8125 1.476562 1.101563-4.046875-3.667969 1.09375-8.8125 1.09375-8.8125l9.195313-9.191406z" fill="#fce4ec"/><path d="m31.265625 11.59375s4.5-4.5 8.355469-.644531c-.289063-.527344-.648438-1.027344-1.097656-1.472656-5.332032-4.957032-9.832032-.457032-9.832032-.457032l-9.835937 9.835938 2.574219 2.574219z" fill="#e0f7fa"/><path d="m21.425781 21.429688-2.570312-2.574219 1.414062-1.414063 2.570313 2.574219z" fill="#80deea"/></svg>

<svg xmlns="http://www.w3.org/2000/svg" viewBox="0 0 48 48" width="50" height="50" fill="#666"><path d="M 7.9375 25.921875 C 3.921875 29.9375 3.832031 36.359375 7.738281 40.265625 C 11.640625 44.167969 18.0625 44.078125 22.078125 40.0625 L 31.070313 31.070313 L 16.929688 16.929688 Z" fill="#e91e63"/><path d="M 40.265625 7.734375 C 36.355469 3.828125 29.9375 3.921875 25.921875 7.9375 L 16.929688 16.929688 L 31.070313 31.070313 L 40.058594 22.078125 C 44.078125 18.0625 44.167969 11.640625 40.265625 7.734375 Z" fill="#00bcd4"/><path d="M 31.070313 31.070313 L 16.929688 16.929688 L 18.34375 15.515625 L 32.484375 29.65625 Z" fill="#00838f"/><path d="M 18.855469 18.855469 L 9.664063 28.046875 C 9.664063 28.046875 4.523438 33.191406 9.664063 38.332031 C 10.113281 38.777344 10.609375 39.144531 11.140625 39.433594 C 7.09375 35.765625 12.234375 30.621094 12.234375 30.621094 L 21.429688 21.429688 Z" fill="#fce4ec"/><path d="M 31.265625 11.59375 C 31.265625 11.59375 35.765625 7.09375 39.621094 10.949219 C 39.332031 10.421875 38.972656 9.921875 38.523438 9.476563 C 33.191406 4.519531 28.691406 9.019531 28.691406 9.019531 L 18.855469 18.855469 L 21.429688 21.429688 Z" fill="#e0f7fa"/><path d="M 21.425781 21.429688 L 18.855469 18.855469 L 20.269531 17.441406 L 22.839844 20.015625 Z" fill="#80deea"/></svg>
